icons/layout-spacious-16.svg

<svg xmlns="http://www.w3.org/2000/svg" viewBox="0 0 16 16"><path d="M16 16H0v-3h16v3zM1 15h14v-1H1v1zm15-5H0V7h16v3zM1 9h14V8H1v1zm15-5H0V1h16v3zM1 3h14V2H1v1z"/><path fill="none" d="M0 0h16v16H0z"/></svg>

<?xml version="1.0" encoding="UTF-8"?><svg id="icons" xmlns="http://www.w3.org/2000/svg" viewBox="0 0 16 16"><defs><style>.cls-1{fill:none;}</style></defs><path d="M16,16H0v-3H16v3ZM1,15H15v-1H1v1Zm15-5H0v-3H16v3ZM1,9H15v-1H1v1Zm15-5H0V1H16v3ZM1,3H15v-1H1v1Z"/><rect class="cls-1" width="16" height="16"/></svg>
